X: 1
T: Maybe March, The
M: 2/4
L: 1/8
R: polka
K: Edor
E2 FA|B2 Bc|d/c/B AF|B>c B/A/F|
E2 FA|B2 Bc|d/c/B AF|FE ED:|
e2 Bc|d>e d/c/B|e2 B>c|dF FE|
e2 B>c|d/e/d/B/ A2|FE/F/ dF|FE ED|
e2 Bc|d>e d/c/B|e2 B>c|dF FD|
E2 FA|B2 Bc|B/A/F dF|FE ED|
